X:37
T:8. Allemaingne
C:Tielman Susato
B:Tielman Susato: "Danserye" (1551) no. 37
R:Allemande
Z:Transcribed by Frank Nordberg - http://www.musicaviva.com
F:http://abc.musicaviva.com/tunes/susato-tielman/susato-1551-37/susato-1551-37-4m.abc
M:4/2 
L:1/2
K:Ddor
V:1
D2DE|F3A|GFFE|F2z2|D3E|F3A|GFFE|F2zA|
G>FEG|F>EDF|EDD^C|D2zA|G>FEG|F>EDF|EDD^C|D2z2:|
V:2
A,2A,C|C2CC|CA,C2|A,2z2|A,2A,C|C2CC|CA,C2|A,2zC|
C2CB,|D2A,A,|CA,A,2|F,2zC|C2CB,|D2A,A,|CA,A,2|^F,2z2:|
V:3
D,2F,G,|A,3F,|E,F,G,2|F,2z2|D,2F,G,|A,3F,|E,F,G,2|F,2zF,|
G,3G,|A,>G,F,D,|G,F,E,2|D,2zF,|G,3G,|A,>G,F,D,|G,F,E,2|D,2z2:|
V:4
D,2D,C,|F,,2F,,F,,|C,D,C,2|F,,2z2|D,2D,C,|F,,2F,,F,,|C,D,C,2|F,,2zF,,|
C,2C,E,|D,2D,D,|C,D,A,,2|D,,2zF,,|C,2C,E,|D,2D,D,|C,D,A,,2|D,2z2:|
V:1
M:3/4
L:1/4
"^Recoupe"D|F2F|G>E F/G/|A2A|A2A|A2A|_BAG|^F2^F|^F2::F|
A>GF|E2D|G2G|G2G|A2F|GE2|D2:|
V:2
M:3/4
L:1/4
A,|D2D|E2A,|F2F|F2F|F2F,|G,A,_B,/C/|D2D|D2::D|
D2D|C2D|E2E|E2E|C2D|B,^C2|D2D|D2:|
V:3
M:3/4
L:1/4
F,|A,2A,|B,>CD|C2D|C2D|C2D|D>C_B,|A,2A,|A,2::A,|
F,>G, A,/B,/|CA,B,|C2B,|C2B,|A,2A,|G,^C,2|^F,2^F,|^F,2:|
V:4
D,|D,2F,|E,2D,|F,2D,|F,2D,|F,2D,|G,,D,G,|D,2D,|D,2::D,|
D,2D,|A,2D,|C,>D,E,|C,>D,E,|A,,2D,|G,,A,,2|D,2D,|D,2:|
V:1
M:3/4
L:1/4
"^Recoupe"D|D2D|E>C D/E/|F2F|F2F|F2F|E>DE|F2F|F2::D|
F>ED|C2D|E2E|E2E|FE>D|D2^C|D2D|D2:|
V:2
M:3/4
L:3/4
G,|A,2A,|CA,_B,|C2C|C2C|C2C|C2C|A,2A,|A,2::A,|
D2A,|A,2B,|C2C|C2B,|DCA,|_B,A,2|^F,2^F,|^F,2:|
V:3
M:3/4
L:1/4
"^c. f."D,|F,2F,|G,>E, F,/G,/|A,2A,|A,2A,|A,2A,|G,2G,|F2F,|F,2::F,|
A,>GF,|E,2D,|G,2G,|G,2G,|A,2F,|G,E,2|D,2D,|D,2:|
V:4
M:3/4
L:1/4
G,,|D,2D,|C,2_B,,|F,,2F,,|F,,2F,,|F,,2F,,|C,2C,|F,,2F,,|F,,2::D,|
D,2D,|A,,2D,|C,2C,|C,>D,E,|D,A,,D,|G,,A,,2|D,2D,|D,2:|
W:
W:
W:  From Musica Viva - http://www.musicaviva.com
W:  the Internet center for free sheet music downloads.
